!!!OTL: ES WAREN ZWEI KOENIGSKINDER
!!!ARE: Europa, Mitteleuropa, Deutschland
!!!SCT: Z0025
!!!YEM: Copyright 1995, estate of Helmut Schaffrath.
**kern
*ICvox
*Ivox
*M2/4
*k[f#]
*G:
{8d
=1
16d
16b
16b
16b
8a
8a
=2
8g
8g
8r}
{8d
=3
16d
16cc
16cc
16cc
16cc
16b
16dd
16b
=4
4a
8r}
{8d
=5
16d
16dd
16dd
16dd
16dd
16cc
16cc
16r
=6
8.b
16gg
16dd
16cc}
{16b
16a
=7
8g
16g
16g
8a
16.a
32b
=8
8g
8r}
{8.a
16cc
=9
16b
16gg
16dd
16b
8a
8b
=10
4g
8r}
==
!!!AGN: Sagen - Lied, Romanze, Tod; +++ 265 nach Geh”r ge„ndert. +++
!!!ONB: ESAC (Essen Associative Code) Database: ZUCCAL
!!!AMT: simple duple
!!!AIN: vox
!!!EED: Helmut Schaffrath
!!!EEV: 1.0
*-
